svg/buttons/downloads/cancel-active.svg

<?xml version="1.0" encoding="UTF-8" standalone="no"?>
<!-- Created with Inkscape (http://www.inkscape.org/) -->
<svg
   xmlns:dc="http://purl.org/dc/elements/1.1/"
   xmlns:cc="http://creativecommons.org/ns#"
   xmlns:rdf="http://www.w3.org/1999/02/22-rdf-syntax-ns#"
   xmlns:svg="http://www.w3.org/2000/svg"
   xmlns="http://www.w3.org/2000/svg"
   xmlns:xlink="http://www.w3.org/1999/xlink"
   xmlns:sodipodi="http://sodipodi.sourceforge.net/DTD/sodipodi-0.dtd"
   xmlns:inkscape="http://www.inkscape.org/namespaces/inkscape"
   width="16"
   height="16"
   id="svg2160"
   sodipodi:version="0.32"
   inkscape:version="0.46"
   sodipodi:docbase="F:\Development\Kempelton\Buttons"
   sodipodi:docname="Cancel active.svg"
   inkscape:output_extension="org.inkscape.output.svg.inkscape"
   inkscape:export-filename="F:\Development\Kempelton\Buttons\Downloads\Cancel active.png"
   inkscape:export-xdpi="90"
   inkscape:export-ydpi="90"
   version="1.0">
  <defs
     id="defs2162">
    <inkscape:perspective
       sodipodi:type="inkscape:persp3d"
       inkscape:vp_x="0 : 8 : 1"
       inkscape:vp_y="0 : 1000 : 0"
       inkscape:vp_z="16 : 8 : 1"
       inkscape:persp3d-origin="8 : 5.3333333 : 1"
       id="perspective16" />
    <linearGradient
       id="linearGradient3636">
      <stop
         style="stop-color:#ffb0a5;stop-opacity:1"
         offset="0"
         id="stop3638" />
      <stop
         style="stop-color:#b13f3f;stop-opacity:1"
         offset="1"
         id="stop3640" />
    </linearGradient>
    <linearGradient
       inkscape:collect="always"
       xlink:href="#linearGradient3636"
       id="linearGradient3642"
       x1="7.5333333"
       y1="1"
       x2="7.5550723"
       y2="7"
       gradientUnits="userSpaceOnUse"
       gradientTransform="matrix(1.0714286,0,0,1.0833334,-0.5714286,-8.33334e-2)" />
  </defs>
  <sodipodi:namedview
     id="base"
     pagecolor="#ffffff"
     bordercolor="#666666"
     borderopacity="1.0"
     inkscape:pageopacity="0.0"
     inkscape:pageshadow="2"
     inkscape:zoom="26.85934"
     inkscape:cx="-1.259149"
     inkscape:cy="7.1065054"
     inkscape:current-layer="layer1"
     showgrid="true"
     inkscape:grid-bbox="true"
     inkscape:document-units="px"
     inkscape:grid-points="true"
     gridtolerance="10000"
     objecttolerance="10000"
     inkscape:window-width="1161"
     inkscape:window-height="950"
     inkscape:window-x="1206"
     inkscape:window-y="352"
     inkscape:object-nodes="true"
     inkscape:object-bbox="false"
     inkscape:object-points="false"
     inkscape:object-paths="false"
     width="16px"
     height="16px">
    <inkscape:grid
       id="GridFromPre046Settings"
       type="xygrid"
       originx="0px"
       originy="0px"
       spacingx="0.5px"
       spacingy="0.5px"
       color="#0000ff"
       empcolor="#0000ff"
       opacity="0.2"
       empopacity="0.4"
       empspacing="4" />
  </sodipodi:namedview>
  <metadata
     id="metadata2165">
    <rdf:RDF>
      <cc:Work
         rdf:about="">
        <dc:format>image/svg+xml</dc:format>
        <dc:type
           rdf:resource="http://purl.org/dc/dcmitype/StillImage" />
        <dc:creator>
          <cc:Agent>
            <dc:title>Arvid Axelsson</dc:title>
          </cc:Agent>
        </dc:creator>
        <cc:license
           rdf:resource="http://creativecommons.org/licenses/by-sa/3.0/" />
      </cc:Work>
      <cc:License
         rdf:about="http://creativecommons.org/licenses/by-sa/3.0/">
        <cc:permits
           rdf:resource="http://creativecommons.org/ns#Reproduction" />
        <cc:permits
           rdf:resource="http://creativecommons.org/ns#Distribution" />
        <cc:requires
           rdf:resource="http://creativecommons.org/ns#Notice" />
        <cc:requires
           rdf:resource="http://creativecommons.org/ns#Attribution" />
        <cc:permits
           rdf:resource="http://creativecommons.org/ns#DerivativeWorks" />
        <cc:requires
           rdf:resource="http://creativecommons.org/ns#ShareAlike" />
      </cc:License>
    </rdf:RDF>
  </metadata>
  <g
     id="layer1"
     inkscape:label="Layer 1"
     inkscape:groupmode="layer"
     style="display:inline">
    <rect
       style="opacity:1;color:#000000;fill:#8a1616;fill-opacity:1;fill-rule:evenodd;stroke:none;stroke-width:2;stroke-linecap:square;stroke-linejoin:miter;marker:none;marker-start:none;marker-mid:none;marker-end:none;stroke-miterlimit:4;stroke-dasharray:none;stroke-dashoffset:0;stroke-opacity:1;visibility:visible;display:inline;overflow:visible;enable-background:accumulate"
       id="rect3149"
       width="16"
       height="16"
       x="0"
       y="0"
       rx="2.5"
       ry="2.5" />
    <path
       style="fill:url(#linearGradient3642);fill-opacity:1;stroke:none;stroke-width:2;stroke-linecap:round;stroke-linejoin:round;stroke-miterlimit:4;stroke-opacity:1;display:inline;opacity:0.80000000000000004"
       d="M 2.5,1 L 13.5,1 C 14.608,1 15.5,1.892 15.5,3 L 15.5,4.5 C 15.5,5.5 6,7.5 0.5,7.5 L 0.5,3 C 0.5,1.892 1.392,1 2.5,1 z "
       id="rect3602"
       sodipodi:nodetypes="ccccccc" />
    <path
       style="opacity:1;fill:#e4c0c0;fill-opacity:1;fill-rule:evenodd;stroke:none;stroke-width:2;stroke-linecap:butt;stroke-linejoin:miter;stroke-miterlimit:4;stroke-dasharray:none;stroke-opacity:1"
       d="M 5.21875 4.28125 L 3.78125 5.71875 L 6.5625 8.5 L 3.78125 11.28125 L 5.21875 12.71875 L 8 9.9375 L 10.78125 12.71875 L 12.21875 11.28125 L 9.4375 8.5 L 12.21875 5.71875 L 10.78125 4.28125 L 8 7.0625 L 5.21875 4.28125 z "
       id="path3155" />
  </g>
</svg>

<svg xmlns="http://www.w3.org/2000/svg" xmlns:xlink="http://www.w3.org/1999/xlink" width="16" height="16" version="1">
  <defs>
    <linearGradient id="a">
      <stop offset="0" stop-color="#ffb0a5"/>
      <stop offset="1" stop-color="#b13f3f"/>
    </linearGradient>
    <linearGradient xlink:href="#a" id="b" x1="7.533" y1="1" x2="7.555" y2="7" gradientUnits="userSpaceOnUse" gradientTransform="matrix(1.07143 0 0 1.08333 -.571 -.083)"/>
  </defs>
  <rect style="marker:none" width="16" height="16" rx="2.5" ry="2.5" color="#000" fill="#8a1616" fill-rule="evenodd" overflow="visible"/>
  <path d="M2.5 1h11c1.108 0 2 .892 2 2v1.5c0 1-9.5 3-15 3V3c0-1.108.892-2 2-2z" fill="url(#b)" opacity=".8"/>
  <path d="M5.219 4.281L3.78 5.72 6.562 8.5l-2.78 2.781 1.437 1.438L8 9.938l2.781 2.78 1.438-1.437L9.438 8.5l2.78-2.781-1.437-1.438L8 7.063 5.219 4.28z" fill="#e4c0c0" fill-rule="evenodd"/>
</svg>
